!!!OTL: IM STILLEN HEITERN GLANZE TRITT ER SO MILD DAHER
!!!ARE: Europa, Mitteleuropa, Deutschland
!!!SCT: B0236
!!!YEM: Copyright 1995, estate of Helmut Schaffrath.
**kern
*ICvox
*Ivox
*M4/4
*k[b-]
*F:
{4f
=1
4cc
4cc
4b-
4b-
=2
2a
4g}
{4cc
=3
4cc
4f
4b-
4a
=4
2g
4r}
{4g
=5
4b-
4b-
4a
4a
=6
2dd
4cc}
{4b-
=7
4a
4a
4g
4g
=8
2f
4r}
==
!!!AGN: Tageszeiten - Lied, Abend
!! Schlusston korrigiert (Druckfehler ?)
!!!ONB: ESAC (Essen Associative Code) Database: BOEHME
!!!AMT: simple quadruple
!!!AIN: vox
!!!EED: Helmut Schaffrath
!!!EEV: 1.0
*-
